X: 950
T: The End Of The Day.
B:O'Neill's 950
N:"collected by J. O'Neill."
Z:Transcribed by Tom Keays (htkeays@mailbox.syr.edu)
Z:abc 1.6
M:6/8
R:Jig
L:1/8
K:G
A |: B>AB G2 D | G>AG GBd | cBA GFG | Ade dcA |
B>AB G2 D | GAG GBd | gfe dcB | AFA cBA :|
|| B2 d ded | dBd gdc | B2 d ded | ece afd |
B2 d ded | ded def | gfe dcB | AFA cBA :|
